X:1
T:The Light on Cape May
M:6/8
L:1/4
K:C
 C/2| C D/2 E F/2| G/2c/2c/2 z c/2| c G/2 G E/2| C3/2 z C/4C/4| C D/2 E F/2|\
 G/4c/4 c zc/4-c/4| c D/2 D D/2| D3/2 z C/4C/4| C D/2 E F/2|G/2-c/2 c/2 z c/4c/4|\
 c- G/2 G E/2| C3/2 z C/4C/4| C D/2 E F/2| G/4c/4 c z c/4c/4| c- D/2 D D/2|\
 D3/2 zC/4-C/4| c3/2 C/2 c| c3/2 C/2 c| c/2c/2c/2 c C/2| C3/2 z C/2|\
 D/2D/2 D/2- D D/2| D D/2 d d/4d/4| d D/2 D D/2| D3/2 z C/4C/4| C3/2 E F/2|\
 G/2 c z c/2| c D/2 D D/2| D3/2 z/2 C/2C/2| C D/2 E F/2| G/4G/4 c z F/2|\
 E/2 E D D/2| C3/2 z/2 z|
